actions/48/edit-redo.svg

<?xml version="1.0" encoding="UTF-8" standalone="no"?>
<!-- Created with Inkscape (http://www.inkscape.org/) -->

<svg
   xmlns:svg="http://www.w3.org/2000/svg"
   xmlns="http://www.w3.org/2000/svg"
   xmlns:xlink="http://www.w3.org/1999/xlink"
   version="1.1"
   width="48"
   height="48"
   id="svg2422">
  <defs
     id="defs2424">
    <linearGradient
       id="linearGradient8662">
      <stop
         id="stop8664"
         style="stop-color:black;stop-opacity:1"
         offset="0" />
      <stop
         id="stop8666"
         style="stop-color:black;stop-opacity:0"
         offset="1" />
    </linearGradient>
    <radialGradient
       cx="24.837126"
       cy="36.421127"
       r="15.644737"
       fx="24.837126"
       fy="36.421127"
       id="radialGradient3827"
       xlink:href="#linearGradient8662"
       gradientUnits="userSpaceOnUse"
       gradientTransform="matrix(1,0,0,0.536723,0,16.87306)" />
    <linearGradient
       id="linearGradient4019">
      <stop
         id="stop4021"
         style="stop-color:#688c35;stop-opacity:1"
         offset="0" />
      <stop
         id="stop4023"
         style="stop-color:#9cc8f0;stop-opacity:0"
         offset="1" />
    </linearGradient>
    <linearGradient
       x1="35.998066"
       y1="31.247124"
       x2="35.998066"
       y2="36.353996"
       id="linearGradient3768"
       xlink:href="#linearGradient4019"
       gradientUnits="userSpaceOnUse"
       gradientTransform="matrix(1.0575864,0,0,0.9790727,0.12288,3.390627)" />
    <linearGradient
       id="linearGradient4009">
      <stop
         id="stop4011"
         style="stop-color:#d7e866;stop-opacity:1"
         offset="0" />
      <stop
         id="stop4013"
         style="stop-color:#98b438;stop-opacity:1"
         offset="0.68190742" />
      <stop
         id="stop4015"
         style="stop-color:#a1ba49;stop-opacity:1"
         offset="0.95274329" />
      <stop
         id="stop4017"
         style="stop-color:white;stop-opacity:0"
         offset="1" />
    </linearGradient>
    <linearGradient
       x1="31.270321"
       y1="10.819631"
       x2="31.270321"
       y2="36.353996"
       id="linearGradient3766"
       xlink:href="#linearGradient4009"
       gradientUnits="userSpaceOnUse"
       gradientTransform="matrix(1.0575864,0,0,0.9790727,0.12288,3.390627)" />
    <linearGradient
       id="linearGradient2187">
      <stop
         id="stop2189"
         style="stop-color:white;stop-opacity:0.64341086"
         offset="0" />
      <stop
         id="stop2191"
         style="stop-color:white;stop-opacity:0"
         offset="1" />
    </linearGradient>
    <linearGradient
       x1="19.502533"
       y1="12.95892"
       x2="15.047561"
       y2="12.95892"
       id="linearGradient3763"
       xlink:href="#linearGradient2187"
       gradientUnits="userSpaceOnUse"
       gradientTransform="matrix(0,-1.1474007,1.239413,0,2.008347,56.359544)" />
  </defs>
  <g
     id="layer1">
    <path
       d="m 40.481863,36.421127 a 15.644737,8.3968936 0 1 1 -31.2894745,0 15.644737,8.3968936 0 1 1 31.2894745,0 z"
       transform="matrix(-1.489736,0,0,-1.001252,61.00076,75.021021)"
       id="path8660"
       style="opacity:0.14117647;fill:url(#radialGradient3827);fill-opacity:1;fill-rule:evenodd;stroke:none;stroke-width:1;marker:none;visibility:visible;display:inline;overflow:visible" />
    <path
       d="M 40.707509,47.482544 C -1.6232441,48.776037 4.675005,14.284004 26.693946,14.483832 l 0,-8.036305 17.999083,14.28132 -17.999083,14.977393 c 0,0 0,-8.222408 0,-8.222408 C 11.820993,26.910124 7.861518,47.224245 40.707509,47.482544 z"
       id="path3701"
       style="fill:url(#linearGradient3766);fill-opacity:1;fill-rule:nonzero;stroke:url(#linearGradient3768);stroke-width:0.96392483;stroke-linecap:butt;stroke-linejoin:round;stroke-miterlimit:7;stroke-opacity:1;stroke-dasharray:none;stroke-dashoffset:0;marker:none;visibility:visible;display:block;overflow:visible" />
    <path
       d="M 18.022447,41.883375 C 5.624256,35.930979 8.899186,15.031041 27.693946,15.483832 l 0,-6.756409 c 0,0 15.320663,12.007073 15.320663,12.007073 L 27.693946,33.40764 c 0,0 0,-6.923808 0,-6.923808 C 11.999523,26.14285 13.182582,37.793847 18.022447,41.883375 z"
       id="path3703"
       style="opacity:0.69886361;fill:none;stroke:url(#linearGradient3763);stroke-width:0.96392483;stroke-linecap:butt;stroke-linejoin:miter;stroke-miterlimit:7;stroke-opacity:1;stroke-dasharray:none;stroke-dashoffset:0;marker:none;visibility:visible;display:block;overflow:visible" />
  </g>
</svg>

<?xml version="1.0" encoding="UTF-8" standalone="no"?>
<!-- Created with Inkscape (http://www.inkscape.org/) -->
<svg
   xmlns:dc="http://purl.org/dc/elements/1.1/"
   xmlns:cc="http://creativecommons.org/ns#"
   xmlns:rdf="http://www.w3.org/1999/02/22-rdf-syntax-ns#"
   xmlns:svg="http://www.w3.org/2000/svg"
   xmlns="http://www.w3.org/2000/svg"
   xmlns:xlink="http://www.w3.org/1999/xlink"
   xmlns:sodipodi="http://sodipodi.sourceforge.net/DTD/sodipodi-0.dtd"
   xmlns:inkscape="http://www.inkscape.org/namespaces/inkscape"
   width="48px"
   height="48px"
   id="svg2422"
   sodipodi:version="0.32"
   inkscape:version="0.46"
   sodipodi:docname="edit-redo.svg"
   inkscape:output_extension="org.inkscape.output.svg.inkscape">
  <defs
     id="defs2424">
    <linearGradient
       inkscape:collect="always"
       id="linearGradient8662">
      <stop
         style="stop-color:#000000;stop-opacity:1;"
         offset="0"
         id="stop8664" />
      <stop
         style="stop-color:#000000;stop-opacity:0;"
         offset="1"
         id="stop8666" />
    </linearGradient>
    <radialGradient
       inkscape:collect="always"
       xlink:href="#linearGradient8662"
       id="radialGradient3827"
       gradientUnits="userSpaceOnUse"
       gradientTransform="matrix(1,0,0,0.536723,0,16.87306)"
       cx="24.837126"
       cy="36.421127"
       fx="24.837126"
       fy="36.421127"
       r="15.644737" />
    <linearGradient
       id="linearGradient4019">
      <stop
         id="stop4021"
         offset="0"
         style="stop-color:#688c35;stop-opacity:1;" />
      <stop
         id="stop4023"
         offset="1"
         style="stop-color:#9cc8f0;stop-opacity:0;" />
    </linearGradient>
    <linearGradient
       inkscape:collect="always"
       xlink:href="#linearGradient4019"
       id="linearGradient3768"
       gradientUnits="userSpaceOnUse"
       gradientTransform="matrix(1.0575864,0,0,0.9790727,0.12288,3.390627)"
       x1="35.998066"
       y1="31.247124"
       x2="35.998066"
       y2="36.353996" />
    <linearGradient
       id="linearGradient4009">
      <stop
         id="stop4011"
         offset="0"
         style="stop-color:#d7e866;stop-opacity:1" />
      <stop
         style="stop-color:#98b438;stop-opacity:1"
         offset="0.68190742"
         id="stop4013" />
      <stop
         id="stop4015"
         offset="0.95274329"
         style="stop-color:#a1ba49;stop-opacity:1" />
      <stop
         id="stop4017"
         offset="1"
         style="stop-color:#ffffff;stop-opacity:0;" />
    </linearGradient>
    <linearGradient
       inkscape:collect="always"
       xlink:href="#linearGradient4009"
       id="linearGradient3766"
       gradientUnits="userSpaceOnUse"
       gradientTransform="matrix(1.0575864,0,0,0.9790727,0.12288,3.390627)"
       x1="31.270321"
       y1="10.819631"
       x2="31.270321"
       y2="36.353996" />
    <linearGradient
       id="linearGradient2187">
      <stop
         id="stop2189"
         offset="0"
         style="stop-color:#ffffff;stop-opacity:0.64341086;" />
      <stop
         id="stop2191"
         offset="1"
         style="stop-color:#ffffff;stop-opacity:0;" />
    </linearGradient>
    <linearGradient
       inkscape:collect="always"
       xlink:href="#linearGradient2187"
       id="linearGradient3763"
       gradientUnits="userSpaceOnUse"
       gradientTransform="matrix(0,-1.1474007,1.239413,0,2.008347,56.359544)"
       x1="19.502533"
       y1="12.95892"
       x2="15.047561"
       y2="12.95892" />
  </defs>
  <sodipodi:namedview
     id="base"
     pagecolor="#ffffff"
     bordercolor="#666666"
     borderopacity="1.0"
     inkscape:pageopacity="0.0"
     inkscape:pageshadow="2"
     inkscape:zoom="7"
     inkscape:cx="24"
     inkscape:cy="24"
     inkscape:current-layer="layer1"
     showgrid="true"
     inkscape:grid-bbox="true"
     inkscape:document-units="px"
     inkscape:window-width="640"
     inkscape:window-height="720"
     inkscape:window-x="0"
     inkscape:window-y="24" />
  <metadata
     id="metadata2427">
    <rdf:RDF>
      <cc:Work
         rdf:about="">
        <dc:format>image/svg+xml</dc:format>
        <dc:type
           rdf:resource="http://purl.org/dc/dcmitype/StillImage" />
      </cc:Work>
    </rdf:RDF>
  </metadata>
  <g
     id="layer1"
     inkscape:label="Layer 1"
     inkscape:groupmode="layer">
    <path
       transform="matrix(-1.489736,0,0,-1.001252,61.00076,75.021021)"
       d="M 40.481863,36.421127 A 15.644737,8.3968935 0 1 1 9.1923885,36.421127 A 15.644737,8.3968935 0 1 1 40.481863,36.421127 z"
       sodipodi:ry="8.3968935"
       sodipodi:rx="15.644737"
       sodipodi:cy="36.421127"
       sodipodi:cx="24.837126"
       id="path8660"
       style="opacity:0.14117647000000000;fill:url(#radialGradient3827);fill-opacity:1;fill-rule:evenodd;stroke:none;stroke-width:1;stroke-linecap:butt;stroke-linejoin:miter;marker:none;marker-start:none;marker-mid:none;marker-end:none;stroke-miterlimit:10;stroke-dasharray:none;stroke-dashoffset:0;stroke-opacity:1;visibility:visible;display:inline;overflow:visible"
       sodipodi:type="arc" />
    <path
       style="fill:url(#linearGradient3766);fill-opacity:1;fill-rule:nonzero;stroke:url(#linearGradient3768);stroke-width:0.96392482999999995;stroke-linecap:butt;stroke-linejoin:round;marker:none;marker-start:none;marker-mid:none;marker-end:none;stroke-miterlimit:7;stroke-dasharray:none;stroke-dashoffset:0;stroke-opacity:1;visibility:visible;display:block;overflow:visible"
       d="M 40.707509,47.482544 C -1.6232441,48.776037 4.675005,14.284004 26.693946,14.483832 L 26.693946,6.447527 L 44.693029,20.728847 L 26.693946,35.70624 C 26.693946,35.70624 26.693946,27.483832 26.693946,27.483832 C 11.820993,26.910124 7.861518,47.224245 40.707509,47.482544 z"
       id="path3701"
       sodipodi:nodetypes="ccccccc" />
    <path
       sodipodi:nodetypes="ccccccc"
       id="path3703"
       d="M 18.022447,41.883375 C 5.624256,35.930979 8.899186,15.031041 27.693946,15.483832 L 27.693946,8.727423 C 27.693946,8.727423 43.014609,20.734496 43.014609,20.734496 L 27.693946,33.40764 C 27.693946,33.40764 27.693946,26.483832 27.693946,26.483832 C 11.999523,26.14285 13.182582,37.793847 18.022447,41.883375 z"
       style="opacity:0.69886360999999997;fill:none;fill-opacity:1;fill-rule:nonzero;stroke:url(#linearGradient3763);stroke-width:0.96392482999999995;stroke-linecap:butt;stroke-linejoin:miter;marker:none;marker-start:none;marker-mid:none;marker-end:none;stroke-miterlimit:7;stroke-dasharray:none;stroke-dashoffset:0;stroke-opacity:1;visibility:visible;display:block;overflow:visible" />
  </g>
</svg>
